assets/images/logo.svg

<?xml version="1.0" encoding="utf-8"?>
<!-- Generator: Adobe Illustrator 18.1.0, SVG Export Plug-In . SVG Version: 6.00 Build 0)  -->
<svg version="1.1" id="Layer_1" xmlns="http://www.w3.org/2000/svg" xmlns:xlink="http://www.w3.org/1999/xlink" x="0px" y="0px"
	 viewBox="0 0 135.1 140.5" enable-background="new 0 0 135.1 140.5" xml:space="preserve">
<g>
	<path fill="#1AAFD6" d="M122.7,35.4c-0.1-0.3-0.4-0.6-0.7-0.6l-17.5,0.4c0,0,0,0-0.1,0c-0.2,0-0.4,0.1-0.5,0.3l-7.4,9.1
		c-0.2,0.2-0.2,0.5-0.1,0.8c0.1,0.2,0.4,0.4,0.7,0.4l16.9-0.4l3.1,16.6c0.1,0.3,0.3,0.5,0.5,0.6c0.1,0,0.2,0,0.2,0
		c0.2,0,0.4-0.1,0.5-0.3l7.4-9.1c0.1-0.2,0.2-0.4,0.1-0.6L122.7,35.4z"/>
	<path fill="#18AED5" d="M130.2,109.2l-22.4-31.5c-0.4-0.5-0.9-0.8-1.5-0.8c-0.6,0-1.2,0.2-1.6,0.7L99.3,84
		c-0.6,0.7-0.6,1.7-0.1,2.4l21.2,29.9c0,0,0.1,0.1,0.1,0.1c0,0.1,1,1.5,1.8,3.3c0.8,1.9,0.8,3.2,0.6,3.6c-1.8,4.1-4.6,5.2-6,5.2
		H18.1c-1.4,0-4.1-1.1-6-5.2c-0.5-1.1,0.8-4.6,2.4-6.8c0,0,0.1-0.1,0.1-0.1l18.7-25.5c1.3,0.1,2.6-0.1,3.9-0.5l20.6,14.3
		c1.7,3.2,5.1,5.3,8.7,5.3c5.5,0,9.9-4.4,9.9-9.9c0-0.2,0-0.3,0-0.5l42.3-49.8c0.3-0.4,0.5-0.9,0.5-1.4c0-0.5-0.3-1-0.7-1.3
		l-6.2-5.3c-0.8-0.7-2.1-0.6-2.8,0.2L68.3,90.2c-2.7-0.5-5.5,0.1-7.7,1.7L43.8,80.2c-0.4-5.1-4.7-9.2-9.9-9.2
		c-5.5,0-9.9,4.4-9.9,9.9c0,0.6,0.1,1.3,0.2,1.9L4.9,109.1c-0.3,0.4-7.6,10.2-3.8,19c4,9.1,11.4,12.4,17,12.4H117
		c5.6,0,12.9-3.3,17-12.4C137.8,119.4,130.5,109.5,130.2,109.2z"/>
	<path fill="#49494A" d="M86.7,0H48.4c-2.9,0-5.2,2.3-5.2,5.2v2.8c0,2.9,2.3,5.2,5.2,5.2H50l-0.5,35l-9,12C40,61,40.1,62,40.6,62.7
		l5.4,6.4c0.4,0.5,0.9,0.7,1.6,0.7c0.6,0,1.2-0.3,1.5-0.8l10.5-14.1c1.3-1.7,1.9-3.7,2-5.8l0.5-37H73l0.5,37c0,2.1,0.7,4.1,2,5.8
		l5.6,7.6c0.4,0.5,0.9,0.8,1.5,0.8c0.6,0,1.2-0.2,1.6-0.7l5.4-6.4c0.6-0.7,0.6-1.7,0.1-2.4l-4-5.5l-0.5-35h1.7
		c2.9,0,5.2-2.3,5.2-5.2V5.2C92,2.3,89.6,0,86.7,0z"/>
</g>
</svg>

<?xml version="1.0" encoding="UTF-8" standalone="no"?>
<svg width="136px" height="141px" viewBox="0 0 136 141" version="1.1" xmlns="http://www.w3.org/2000/svg" xmlns:xlink="http://www.w3.org/1999/xlink">
    <!-- Generator: Sketch 39.1 (31720) - http://www.bohemiancoding.com/sketch -->
    <title>Group</title>
    <desc>Created with Sketch.</desc>
    <defs></defs>
    <g id="Page-1" stroke="none" stroke-width="1" fill="none" fill-rule="evenodd">
        <g id="logo">
            <g id="Group">
                <path d="M122.7,35.4 C122.6,35.1 122.3,34.8 122,34.8 L104.5,35.2 C104.5,35.2 104.5,35.2 104.4,35.2 C104.2,35.2 104,35.3 103.9,35.5 L96.5,44.6 C96.3,44.8 96.3,45.1 96.4,45.4 C96.5,45.6 96.8,45.8 97.1,45.8 L114,45.4 L117.1,62 C117.2,62.3 117.4,62.5 117.6,62.6 L117.8,62.6 C118,62.6 118.2,62.5 118.3,62.3 L125.7,53.2 C125.8,53 125.9,52.8 125.8,52.6 L122.7,35.4 L122.7,35.4 Z" id="Shape" fill="#1AAFD6"></path>
                <path d="M130.2,109.2 L107.8,77.7 C107.4,77.2 106.9,76.9 106.3,76.9 C105.7,76.9 105.1,77.1 104.7,77.6 L99.3,84 C98.7,84.7 98.7,85.7 99.2,86.4 L120.4,116.3 L120.5,116.4 C120.5,116.5 121.5,117.9 122.3,119.7 C123.1,121.6 123.1,122.9 122.9,123.3 C121.1,127.4 118.3,128.5 116.9,128.5 L18.1,128.5 C16.7,128.5 14,127.4 12.1,123.3 C11.6,122.2 12.9,118.7 14.5,116.5 L14.6,116.4 L33.3,90.9 C34.6,91 35.9,90.8 37.2,90.4 L57.8,104.7 C59.5,107.9 62.9,110 66.5,110 C72,110 76.4,105.6 76.4,100.1 L76.4,99.6 L118.7,49.8 C119,49.4 119.2,48.9 119.2,48.4 C119.2,47.9 118.9,47.4 118.5,47.1 L112.3,41.8 C111.5,41.1 110.2,41.2 109.5,42 L68.3,90.2 C65.6,89.7 62.8,90.3 60.6,91.9 L43.8,80.2 C43.4,75.1 39.1,71 33.9,71 C28.4,71 24,75.4 24,80.9 C24,81.5 24.1,82.2 24.2,82.8 L4.9,109.1 C4.6,109.5 -2.7,119.3 1.1,128.1 C5.1,137.2 12.5,140.5 18.1,140.5 L117,140.5 C122.6,140.5 129.9,137.2 134,128.1 C137.8,119.4 130.5,109.5 130.2,109.2 L130.2,109.2 Z" id="Shape" fill="#27A5F9"></path>
                <path d="M86.7,0 L48.4,0 C45.5,0 43.2,2.3 43.2,5.2 L43.2,8 C43.2,10.9 45.5,13.2 48.4,13.2 L50,13.2 L49.5,48.2 L40.5,60.2 C40,61 40.1,62 40.6,62.7 L46,69.1 C46.4,69.6 46.9,69.8 47.6,69.8 C48.2,69.8 48.8,69.5 49.1,69 L59.6,54.9 C60.9,53.2 61.5,51.2 61.6,49.1 L62.1,12.1 L73,12.1 L73.5,49.1 C73.5,51.2 74.2,53.2 75.5,54.9 L81.1,62.5 C81.5,63 82,63.3 82.6,63.3 C83.2,63.3 83.8,63.1 84.2,62.6 L89.6,56.2 C90.2,55.5 90.2,54.5 89.7,53.8 L85.7,48.3 L85.2,13.3 L86.9,13.3 C89.8,13.3 92.1,11 92.1,8.1 L92.1,5.2 C92,2.3 89.6,0 86.7,0 L86.7,0 Z" id="Shape" fill="#49494A"></path>
            </g>
        </g>
    </g>
</svg>
